X:58
T:The Smith's A Gallant Fireman
C:from the playing of  Bob Keeble
Q:1/4=180
I:abc2nwc
M:3/4
L:1/8
K:G
D2B, D2G|B3B3|D2B, D2G|B3B3|c2B A2G|
F3F3|A2G F2E|D6|D2B, D2G|B3B3|D2B, D2G|
B3B3|c2B A2G|F2D E2F|G3B3|[1G3-G3:|[2G3B2c
|:d3c3|B3A3|G2A B2G|E3-E3|c3B3|A3G3|
F2G A2F|D3-D3|ded cdc|BcB ABA|G2A B2G|
E3-E3|c2B A2G|F2D E2F|G3B3|G3-G3:|


